img/icon_telegram.svg

<svg width="41" height="42" viewBox="0 0 41 42" fill="none" xmlns="http://www.w3.org/2000/svg">
<path fill-rule="evenodd" clip-rule="evenodd" d="M0 21.1703C0 32.4841 9.17816 41.6556 20.5 41.6556C31.8218 41.6556 41 32.4841 41 21.1703C41 9.85664 31.8218 0.685059 20.5 0.685059C9.17816 0.685059 0 9.85664 0 21.1703ZM16.7417 30.5594L17.0905 25.3376L17.0902 25.3374L26.5961 16.7652C27.0133 16.3952 26.505 16.2147 25.9512 16.5503L14.2196 23.9464L9.15212 22.3659C8.05778 22.0311 8.04992 21.2796 9.39782 20.7394L29.1444 13.1306C30.0463 12.7214 30.9168 13.3471 30.5725 14.7264L27.2097 30.5621C26.9748 31.6874 26.2944 31.9565 25.3517 31.4367L20.229 27.6547L17.7667 30.0473C17.7589 30.0549 17.7512 30.0624 17.7435 30.0698C17.4681 30.3378 17.2403 30.5594 16.7417 30.5594Z" fill="white"/>
</svg>

<svg width="41" height="42" fill="none" xmlns="http://www.w3.org/2000/svg"><path fill-rule="evenodd" clip-rule="evenodd" d="M0 21.17c0 11.314 9.178 20.486 20.5 20.486S41 32.484 41 21.17C41 9.857 31.822.685 20.5.685S0 9.857 0 21.17zm16.742 9.39l.348-5.222 9.506-8.573c.417-.37-.091-.55-.645-.215L14.22 23.946l-5.068-1.58c-1.094-.335-1.102-1.086.246-1.627l19.746-7.608c.902-.41 1.773.216 1.429 1.595L27.21 30.562c-.235 1.125-.916 1.394-1.858.875l-5.123-3.782-2.462 2.392a4.708 4.708 0 01-.023.023c-.276.268-.504.49-1.002.49z" fill="#fff"/></svg>
